X: 181
T: Keppels Delight
%R: jig
B: Chas & Sam Thompson "Twenty Four Country Dances for the Year 1780", London 1780, p.91
F: http://www.vwml.org/browse/browse-collections-dance-tune-books/browse-thompsons1780
Z: 2014 John Chambers <jc:trillian.mit.edu> (added dance description)
M: 6/8
L: 1/8
K: A
% - - - - - - - - - - - - - - - - - - - - - - - - - - - - -
|:\
{d}c2d edc | fga ega | fed cBA | GBA GFE |\
c2d edc | fga ega | fed cdB | A3 A,3 :|
|:\
BEE cEE | dEE cEE | BEE cEE | BEE EEE |\
BEE cEE | dEE cEE | Bdc BAG | A3 A,3 :|
% - - - - - - - - - - Dance description - - - - - - - - - -
%%begintext align
%%   The 1st Lady Sett ot the 2d Gent: & turn the 3d Gent: then
%% retreat back to her place .|. the 1st Gent: Set to the 2d Lady and
%% turn the 3d Lady & remain at bottom :|. foot it 3 & 3 top and
%% bottom foot it 3 & 3 sideways .|: Hands Six round :|:
%%endtext

%%sep 1 1 500
%%sep 1 1 500
